!!!COM: Palestrina, Giovanni Perluigi da
!!!OPR: Missa De Beata Marie Virginis (III)
!!!OMD: Benedictus
!!!OTL: First Section
**kern	**kern	**kern	**kern
*Ibass	*Itenor	*Icalto	*Icant
!Bassus	!Tenor	!Altus	!Cantus
*clefF4	*clefGv2	*clefG2	*clefG2
*k[]	*k[]	*k[]	*k[]
*G:mix	*G:mix	*G:mix	*G:mix
*M4/2	*M4/2	*M4/2	*M4/2
=1	=1	=1	=1
0r	1.d	0r	0r
.	2B	.	.
=2	=2	=2	=2
0r	1c	0r	0r
.	2B	.	.
.	2c	.	.
=3	=3	=3	=3
1.G	1d	0r	0r
.	1e	.	.
2E	.	.	.
=4	=4	=4	=4
1F	2d	0r	0r
.	2c	.	.
2E	2e	.	.
2F	4d	.	.
.	4c	.	.
=5	=5	=5	=5
2.G	4B	1.g	0r
.	4c	.	.
.	2.d	.	.
4F	.	.	.
2E	.	.	.
.	4c	.	.
2C	[2c	2e	.
=6	=6	=6	=6
1D	4c]	1f	0r
.	8B	.	.
.	8A	.	.
.	2B	.	.
2C	2c	2e	.
[2c	2A	2f	.
=7	=7	=7	=7
2c]	1.G	2.g	1.dd
4B	.	.	.
4A	.	8f	.
.	.	8e	.
1B	.	2d	.
.	2d	[2g	2b
=8	=8	=8	=8
1A	2e	2g]	1cc
.	2c	2f#	.
2G	2d	1g	2b
2E	[2c	.	2cc
=9	=9	=9	=9
2F	2c]	2r	1dd
2G	2B	1g	.
2C	1c	.	1ee
2C	.	2e	.
=10	=10	=10	=10
4D	0r	1f	2dd
4E	.	.	.
4F	.	.	2a
4G	.	.	.
4A	.	2e	2.cc
4B-	.	.	.
4A	.	2f	.
8G	.	.	4dd
8F	.	.	.
=11	=11	=11	=11
4E	1r	1g	4ee
4D	.	.	4ff#
2E	.	.	1gg
1D	2r	1a	.
.	[2d	.	2ff#
=12	=12	=12	=12
1G	2d]	[0g	2gg
.	2B	.	2dd
1r	1c	.	2.ee
.	.	.	4cc
=13	=13	=13	=13
0r	2B	1g]	2dd
.	2c	.	2.ee
.	1d	1r	.
.	.	.	4dd
.	.	.	[2dd
=14	=14	=14	=14
1r	1e	2r	2dd]
.	.	2g	2cc#
2r	1d	2a	1dd
2G	.	2b	.
=15	=15	=15	=15
2A	0r	2cc	1r
2B	.	4b	.
.	.	4a	.
2.c	.	2g	1cc
.	.	2cc	.
8B	.	.	.
8A	.	.	.
=16	=16	=16	=16
2G	0r	2b	2dd
2c	.	1a	2ee
2d	.	.	2ff
2G	.	[2g	4ee
.	.	.	4dd
=17	=17	=17	=17
1A	2r	2g]	2.cc
.	2c	2f#	.
.	.	.	8b
.	.	.	8a
1G	2d	2.g	2b
.	2e	.	2g
.	.	8f	.
.	.	8e	.
=18	=18	=18	=18
2r	2f	1d	2a
2G	4e	.	2b
.	4d	.	.
2A	2c	1r	2cc
2B	4g	.	4b
.	4f	.	4a
=19	=19	=19	=19
4c	4e	1r	2g
4B	4d	.	.
4A	4c	.	2.cc
4G	4B	.	.
1F	4A	2r	.
.	4B	.	4b
.	2c	2A	[2a
=20	=20	=20	=20
2G	2B	2B	4a]
.	.	.	4g
2E	4A	2c#	1g
.	4G	.	.
1D	2A	2d	.
.	2A	[2d	2f#
=21	=21	=21	=21
1G	1B	2d]	1g
.	.	2e	.
2A	2r	2f	1r
2B	2d	[2g	.
=22	=22	=22	=22
2c	2e	4g]	0r
.	.	8f	.
.	.	8e	.
4B	2f#	2d	.
4A	.	.	.
[1G	2.g	2e	.
.	.	2d	.
.	8f	.	.
.	8e	.	.
=23	=23	=23	=23
2G]	2d	2.g	2r
2B	1g	.	2dd
.	.	4f	.
2c	.	2e	2ee
[2d	2f	2d	2ff
=24	=24	=24	=24
2d]	1.e	2r	1.gg
4c	.	2g	.
4B	.	.	.
2c	.	2a	.
2d	2a	2a	2ff
=25	=25	=25	=25
1G	2.g	1b-	4ee
.	.	.	4dd
.	.	.	1dd
.	4f	.	.
2.A	2e	2.a	.
.	2e	.	2cc#
4A	.	4a	.
=26	=26	=26	=26
1D	1d	1f#	1dd
1r	1r	1r	1r
*-	*-	*-	*-
!!!CDT: 1525/^1526/-1594/2/2
!!!OCY: Italia
!!!AGN: Mass (Paraphrase)
!!!AST: renaissance, vocal
!!!ASW: Gregorian Mass
!!!PWK: Masses, Book Mantuan I
!!!RNB: Cadence finals: D
!!!YOR: Le Opere Complete, v. 18, p. 162
!!!YOO: Rome, Italy: Fratelli Scalera
!!!END: 1992//
!!!EED: John Miller
!!!YEC: Copyright 2000, John Miller
!!!YEN: United States of America
!!!YEM: Rights to all derivative electronic formats reserved.
!!!YEM: Refer to licensing agreement for further details.
!!!YEM: This file must be accompanied by the licensing agreement.
!!!YEM: A copy of the licensing agreement may be found at http://www.music-cog.ohio-state.edu/HumdrumDatabases/Palestrina/license.txt
!!!EMD: converted to Humdrum by Bret Aarden
